X: 113
T:Aber Geldie. HA.112
T:Birks of Abergeldie,aka. HA.112
T:Devonshire Lass,aka. HA.112
M:C
Q:200
C:Birks of,..Devonshire Lass,aka
S:Henry Atkinson's original MS,Hartburn,N'umberland,1694.
O:England
A:Hartburn,Northumberland
N:Aka, Scotch Ayr.  cf Playford eds 12-18(1703-28). also as Birks of ..in
N:Walsh CD 2 1735..CGP
H:1/8
Z:vmp.Chris Partington.Jan.2004
K:F
F3G A2c2|"-"f4"="e2d2|"-"f4"="e2d2|efga g2a2|!
F3G A2c2|f2g2 a2g2|f2d2c2(BA)|G4d4:|!
F3G A2f2|c2F2 A2f2|c2F2 A2f2|dcBA G2A2|!
F3G A2f2|c2F2 A2fg|agfd fdcA|G4 d4||!
F3G A2B2|cAFA cAFA|cAFA cAFA|dcBA GABG|!
FEFG AGAB|cAcd cdfg|agfd fdcA|G4d4|]
